X: 1
T:Paddy Fahys reel (number 7)
M:4/4
L:1/8
C:Paddy Fahy
K:G
 dedB ~c2Ac | GEED cBcd | AdAB cABd | cAGE D2FA :|
   d3e fded | ~c2Gc gcec | Add^c ~d2cd | eaag ed^cA |
 ~d2Ad fded | ^cA (3Bcd efge | afge ^cded | ^cAGE D2FA :||
